Dominus_Funeral/22/apps/onboard.svg

<svg xmlns="http://www.w3.org/2000/svg" width="24" height="24" viewBox="0 0 6.35 6.35"><defs><linearGradient id="a"><stop offset="0"/><stop offset="1" stop-opacity="0"/></linearGradient><linearGradient id="b" x1="24.82" x2="25" y1="15.38" y2="37.28" gradientTransform="matrix(.79363 0 0 .9639 65.3 -7.76)" gradientUnits="userSpaceOnUse"><stop offset="0" stop-color="#eacfb0"/><stop offset=".24" stop-color="#b09b77"/><stop offset=".28" stop-color="#e3cfa5"/><stop offset="1" stop-color="#997b53"/></linearGradient><linearGradient id="c"><stop offset="0" stop-color="#cee14b"/><stop offset="1" stop-color="#9db029"/></linearGradient></defs><path class="ColorScheme-Text" d="M1.1.26a.83.83 0 0 0-.84.84v4.15c0 .46.38.84.84.84h4.15c.46 0 .84-.38.84-.84V1.1a.83.83 0 0 0-.84-.84zm.8.73c.29 0 .5.08.67.24a.9.9 0 0 1 .24.67.9.9 0 0 1-.24.67.9.9 0 0 1-.67.24.9.9 0 0 1-.67-.24A.9.9 0 0 1 1 1.9c0-.28.08-.5.24-.67A.9.9 0 0 1 1.9 1zm0 .33a.38.38 0 0 0-.32.15.7.7 0 0 0-.12.43c0 .19.04.33.12.43.08.1.18.15.32.15s.25-.05.33-.15a.7.7 0 0 0 .11-.43.7.7 0 0 0-.11-.43.38.38 0 0 0-.33-.15zm2 2.22h.69c.24 0 .42.04.53.11.11.08.17.2.17.37 0 .09-.02.16-.07.23-.04.06-.1.1-.17.13.1.03.17.09.23.17a.5.5 0 0 1 .08.29c0 .17-.06.3-.17.39-.12.09-.3.13-.53.13H3.9zm.46.32v.38h.25c.07 0 .13-.01.16-.05.04-.03.06-.08.06-.14 0-.06-.02-.11-.06-.14-.03-.04-.09-.05-.16-.05zm0 .7v.48h.27c.09 0 .16-.02.2-.06.05-.04.07-.1.07-.18 0-.08-.02-.14-.07-.18-.04-.04-.11-.06-.2-.06z" fill="#1a1a1a" stroke-width=".36"/></svg>

<?xml version="1.0" encoding="UTF-8" standalone="no"?>
<svg
   xmlns:dc="http://purl.org/dc/elements/1.1/"
   xmlns:cc="http://creativecommons.org/ns#"
   xmlns:rdf="http://www.w3.org/1999/02/22-rdf-syntax-ns#"
   xmlns:svg="http://www.w3.org/2000/svg"
   xmlns="http://www.w3.org/2000/svg"
   xmlns:sodipodi="http://sodipodi.sourceforge.net/DTD/sodipodi-0.dtd"
   xmlns:inkscape="http://www.inkscape.org/namespaces/inkscape"
   width="24"
   height="24"
   viewBox="0 0 6.35 6.35"
   version="1.1"
   id="svg25"
   sodipodi:docname="onboard.svg"
   inkscape:version="0.92.4 (5da689c313, 2019-01-14)">
  <metadata
     id="metadata29">
    <rdf:RDF>
      <cc:Work
         rdf:about="">
        <dc:format>image/svg+xml</dc:format>
        <dc:type
           rdf:resource="http://purl.org/dc/dcmitype/StillImage" />
        <dc:title></dc:title>
      </cc:Work>
    </rdf:RDF>
  </metadata>
  <sodipodi:namedview
     pagecolor="#ffffff"
     bordercolor="#666666"
     borderopacity="1"
     objecttolerance="10"
     gridtolerance="10"
     guidetolerance="10"
     inkscape:pageopacity="0"
     inkscape:pageshadow="2"
     inkscape:window-width="1138"
     inkscape:window-height="480"
     id="namedview27"
     showgrid="false"
     inkscape:zoom="9.8333333"
     inkscape:cx="1.0677966"
     inkscape:cy="12"
     inkscape:window-x="0"
     inkscape:window-y="25"
     inkscape:window-maximized="0"
     inkscape:current-layer="svg25" />
  <defs
     id="defs21">
    <linearGradient
       id="a">
      <stop
         offset="0"
         id="stop2" />
      <stop
         offset="1"
         stop-opacity="0"
         id="stop4" />
    </linearGradient>
    <linearGradient
       id="b"
       x1="24.82"
       x2="25"
       y1="15.38"
       y2="37.28"
       gradientTransform="matrix(.79363 0 0 .9639 65.3 -7.76)"
       gradientUnits="userSpaceOnUse">
      <stop
         offset="0"
         stop-color="#eacfb0"
         id="stop7" />
      <stop
         offset=".24"
         stop-color="#b09b77"
         id="stop9" />
      <stop
         offset=".28"
         stop-color="#e3cfa5"
         id="stop11" />
      <stop
         offset="1"
         stop-color="#997b53"
         id="stop13" />
    </linearGradient>
    <linearGradient
       id="c">
      <stop
         offset="0"
         stop-color="#cee14b"
         id="stop16" />
      <stop
         offset="1"
         stop-color="#9db029"
         id="stop18" />
    </linearGradient>
  </defs>
  <path
     class="ColorScheme-Text"
     d="M 1.1,0.26 A 0.83,0.83 0 0 0 0.26,1.1 v 4.15 c 0,0.46 0.38,0.84 0.84,0.84 h 4.15 c 0.46,0 0.84,-0.38 0.84,-0.84 V 1.1 A 0.83,0.83 0 0 0 5.25,0.26 Z m 0.8,0.73 c 0.29,0 0.5,0.08 0.67,0.24 A 0.9,0.9 0 0 1 2.81,1.9 0.9,0.9 0 0 1 2.57,2.57 0.9,0.9 0 0 1 1.9,2.81 0.9,0.9 0 0 1 1.23,2.57 0.9,0.9 0 0 1 1,1.9 C 1,1.62 1.08,1.4 1.24,1.23 A 0.9,0.9 0 0 1 1.9,1 Z m 0,0.33 A 0.38,0.38 0 0 0 1.58,1.47 0.7,0.7 0 0 0 1.46,1.9 c 0,0.19 0.04,0.33 0.12,0.43 0.08,0.1 0.18,0.15 0.32,0.15 0.14,0 0.25,-0.05 0.33,-0.15 A 0.7,0.7 0 0 0 2.34,1.9 0.7,0.7 0 0 0 2.23,1.47 0.38,0.38 0 0 0 1.9,1.32 Z m 2,2.22 h 0.69 c 0.24,0 0.42,0.04 0.53,0.11 0.11,0.08 0.17,0.2 0.17,0.37 0,0.09 -0.02,0.16 -0.07,0.23 -0.04,0.06 -0.1,0.1 -0.17,0.13 0.1,0.03 0.17,0.09 0.23,0.17 A 0.5,0.5 0 0 1 5.36,4.84 C 5.36,5.01 5.3,5.14 5.19,5.23 5.07,5.32 4.89,5.36 4.66,5.36 H 3.9 Z M 4.36,3.86 V 4.24 H 4.61 C 4.68,4.24 4.74,4.23 4.77,4.19 4.81,4.16 4.83,4.11 4.83,4.05 4.83,3.99 4.81,3.94 4.77,3.91 4.74,3.87 4.68,3.86 4.61,3.86 Z m 0,0.7 V 5.04 H 4.63 C 4.72,5.04 4.79,5.02 4.83,4.98 4.88,4.94 4.9,4.88 4.9,4.8 4.9,4.72 4.88,4.66 4.83,4.62 4.79,4.58 4.72,4.56 4.63,4.56 Z"
     id="path23"
     inkscape:connector-curvature="0"
     style="fill:#1a1a1a;stroke-width:0.36000001" />
</svg>
